resources/icons-svg/22/wallet-open.svg

<svg xmlns="http://www.w3.org/2000/svg" viewBox="0 0 22 22">
  <defs id="defs3051">
    <style type="text/css" id="current-color-scheme">
      .ColorScheme-Text {
        color:#232629;
      }
      </style>
  </defs>
 <path 
     style="fill:currentColor;fill-opacity:1;stroke:none" 
     d="m 3.0000001,3.0000001 0,4 -1,0 0,1 0,9.9999999 c 0,0.554 0.446,1 1,1 L 19,19 l 1,0 0,-1 0,-9.9999999 c 0,-0.554 -0.446,-1 -1,-1 l -5,0 0,-4 z m 1,1 8.9999999,0 0,3 -2.507812,0 c -0.470484,-0.6273203 -1.2080451,-0.9975468 -1.9921881,-1 -0.786206,6.144e-4 -1.526323,0.3710349 -1.9980467,1 l -2.5019531,0 z m -1,4 1,0 2.0507812,0 4.8945307,0 2.054688,0 1,0 5,0 L 19,11 l -2,0 -5,0 c -1.108,0 -2.0000001,0.892 -2.0000001,2 0,1.108 0.8920001,2 2.0000001,2 l 5,0 2,0 0,3 -15.9999999,0 z M 13,12 c 0.552285,0 1,0.447715 1,1 0,0.552285 -0.447715,1 -1,1 -0.552285,0 -1,-0.447715 -1,-1 0,-0.552285 0.447715,-1 1,-1 z"
	 class="ColorScheme-Text"
     />
</svg>

<?xml version="1.0" encoding="UTF-8"?>
<svg xmlns="http://www.w3.org/2000/svg" xmlns:xlink="http://www.w3.org/1999/xlink" xmlns:cc="http://creativecommons.org/ns#" xmlns:dc="http://purl.org/dc/elements/1.1/" xmlns:rdf="http://www.w3.org/1999/02/22-rdf-syntax-ns#" xmlns:inkscape="http://www.inkscape.org/namespaces/inkscape" xmlns:sodipodi="http://sodipodi.sourceforge.net/DTD/sodipodi-0.dtd" width="22" height="22">
    <style type="text/css" id="current-color-scheme">
      .ColorScheme-Text {
        color:#31363b;
      }
      .ColorScheme-Background {
        color:#eff0f1;
      }
      .ColorScheme-Accent {
        color:#3daee9;
      }
      .ColorScheme-ButtonText {
        color:#31363b;
      }
      </style>
    <g id="wallet-open">
    <path id="rect4188" d="M 3,3 3,7 2,7 2,8 2,18 c 0,0.554 0.446,1 1,1 l 16,0 1,0 0,-1 0,-10 C 20,7.446 19.554,7 19,7 l -5,0 0,-4 z m 1,1 9,0 0,3 -2.507812,0 C 10.021704,6.3726797 9.284143,6.0024532 8.5,6 7.7137941,6.0006144 6.9736765,6.3710349 6.5019531,7 L 4,7 Z M 3,8 4,8 6.0507812,8 10.945312,8 13,8 l 1,0 5,0 0,3 -2,0 -5,0 c -1.108,0 -2,0.892 -2,2 0,1.108 0.892,2 2,2 l 5,0 2,0 0,3 -16,0 z m 10,4 c 0.552285,0 1,0.447715 1,1 0,0.552285 -0.447715,1 -1,1 -0.552285,0 -1,-0.447715 -1,-1 0,-0.552285 0.447715,-1 1,-1 z" style="opacity:1;fill:currentColor;fill-opacity:1;stroke:none" inkscape:connector-curvature="0" sodipodi:nodetypes="ccccsscccssccccccccccccccccccccssscccccsssss" class="ColorScheme-Text"/>
    <rect y="0" x="0" height="22" width="22" id="rect4216" style="opacity:1;fill:none;fill-opacity:1;stroke:none"/>
  </g>
</svg>
